Obsidian-SemiLight/actions/24s/dashboard-show.svg

<svg viewBox="0 0 24 24" xmlns="http://www.w3.org/2000/svg"><path d="m4 4v14h16v-14zm1 1h14v12h-14zm1 1v4h2l2-2v-2zm8.5 1c-1.938995 0-3.5 1.561005-3.5 3.5s1.561005 3.5 3.5 3.5 3.5-1.561005 3.5-3.5-1.561005-3.5-3.5-3.5zm0 1c1.384997 0 2.5 1.115003 2.5 2.5s-1.115003 2.5-2.5 2.5-2.5-1.115003-2.5-2.5 1.115003-2.5 2.5-2.5zm-4.5 1-1 1h1zm4 0v2h1 1v-1h-1v-1zm-8 4v2h2l1 1v-1h.2363281v-2zm-2 6v1h16v-1z" fill="#4d4d4d"/></svg>

<svg xmlns="http://www.w3.org/2000/svg" viewBox="0 0 24 24">
  <defs id="defs3051">
    <style type="text/css" id="current-color-scheme">
      .ColorScheme-Text {
        color:#4d4d4d;
      }
      </style>
  </defs>
 <path style="fill:currentColor;fill-opacity:1;stroke:none" 
     d="M 4 4 L 4 18 L 20 18 L 20 4 L 4 4 z M 5 5 L 19 5 L 19 17 L 5 17 L 5 5 z M 6 6 L 6 10 L 8 10 L 10 8 L 10 6 L 6 6 z M 14.5 7 C 12.561005 7 11 8.561005 11 10.5 C 11 12.438995 12.561005 14 14.5 14 C 16.438995 14 18 12.438995 18 10.5 C 18 8.561005 16.438995 7 14.5 7 z M 14.5 8 C 15.884997 8 17 9.115003 17 10.5 C 17 11.884997 15.884997 13 14.5 13 C 13.115003 13 12 11.884997 12 10.5 C 12 9.115003 13.115003 8 14.5 8 z M 10 9 L 9 10 L 10 10 L 10 9 z M 14 9 L 14 11 L 15 11 L 16 11 L 16 10 L 15 10 L 15 9 L 14 9 z M 6 13 L 6 15 L 8 15 L 9 16 L 9 15 L 9.2363281 15 L 9.2363281 13 L 6 13 z M 4 19 L 4 20 L 20 20 L 20 19 L 4 19 z "
     class="ColorScheme-Text"
     />
</svg>
